X:1
T:Leslie, 86.86.88
T:Leslie, 86.86.88
T:John P. Campbell, 1899
T:Public Domain Courtesy of the Cyber Hymnal™
C:John P. Campbell, 1899
Z:Public Domain
Z:Courtesy of the Cyber Hymnal™
%%score ( 1 2 ) ( 3 4 )
L:1/8
Q:1/4=112
M:4/4
K:Eb
V:1 treble 
V:2 treble 
V:3 bass 
V:4 bass 
V:1
 E2 | [EG]2 [DA]2 [EB]2 [EB]2 | [Ec]3 [Ec] [EB]2 [EB]2 | [EA]2 [EG]2 [EF]2 (GA) | [EG]6 [E=A]2 | %5
 [DB]2 [Fc]2 [Fd]2 [Fd]2 | [Ff]3 [Fe] [Fd]2 [FB]2 | [EB]2 (=AG) [EF]2 [Ec]2 | [DB]6 [EB]2 | %9
 [Ec]2 [GB]2 [FA]2 [FA]2 | B3 z A [EG]2 [EB]2 | [EA]2 [EG]2 F2 [Ec]2 | B6 [B,D]2 | [B,E]6 |] %14
V:2
 E2 | x8 | x8 | x6 D2 | x8 | x8 | x8 | x2 E2 x4 | x8 | x8 | F2 D2 x5 | x4 F2 x2 | (E4 D2) x2 | %13
 x6 |] %14
V:3
 [E,G,]2 | [E,B,]2 [F,A,]2 G,2 [E,G,]2 | [A,,A,]3 [C,A,] [E,G,]2 [E,G,]2 | %3
 [C,A,]2 [B,,B,]2 [A,,C]2 [B,,B,]2 | [E,B,]6 [C,F,]2 | [B,,F,]2 [=A,,F,]2 [B,,F,]2 [B,,B,]2 | %6
 [=A,,C]3 [A,,C] [B,,B,]2 [D,B,]2 | [F,C]2 (CB,) [F,=A,]2 [F,A,]2 | [B,,B,]6 [G,B,]2 | %9
 A,2 [=E,_D]2 [F,C]2 [_E,_C]2 | [D,B,]2 [B,,B,]2 [E,B,]2 [_D,G,]2 x | %11
 [C,A,]2 [B,,B,]2 [A,,C]2 [A,,F,]2 | [B,,F,]6 [B,,A,]2 | [E,G,]6 |] %14
V:4
 x2 | x4 G,2 x2 | x8 | x8 | x8 | x8 | x8 | x2 F,2 x4 | x8 | A,2 x6 | x9 | x8 | x8 | x6 |] %14

